svgs/light/arrows-left-right.svg

<svg xmlns="http://www.w3.org/2000/svg" viewBox="0 0 512 512"><!-- Font Awesome Pro 6.0.0-alpha2 by @fontawesome - https://fontawesome.com License - https://fontawesome.com/license (Commercial License) --><path d="M507.312 267.312L395.312 379.312C392.188 382.438 388.094 384 384 384S375.812 382.438 372.688 379.312C366.438 373.062 366.438 362.937 372.688 356.688L457.375 272H54.625L139.312 356.688C145.562 362.938 145.562 373.063 139.312 379.312C136.188 382.438 132.094 384 128 384S119.812 382.438 116.688 379.312L4.688 267.312C-1.563 261.062 -1.563 250.937 4.688 244.688L116.688 132.688C122.938 126.438 133.063 126.438 139.312 132.688S145.562 149.063 139.312 155.312L54.625 240H457.375L372.687 155.312C366.437 149.062 366.437 138.937 372.687 132.688S389.062 126.438 395.312 132.688L507.312 244.688C513.562 250.938 513.562 261.062 507.312 267.312Z"/></svg>

<svg xmlns="http://www.w3.org/2000/svg" viewBox="0 0 512 512"><!--! Font Awesome Pro 6.3.0 by @fontawesome - https://fontawesome.com License - https://fontawesome.com/license (Commercial License) Copyright 2023 Fonticons, Inc. --><path d="M507.3 267.3l-112 112C392.2 382.4 388.1 384 384 384s-8.188-1.562-11.31-4.688c-6.25-6.25-6.25-16.38 0-22.62L457.4 272H54.63l84.69 84.69c6.25 6.25 6.25 16.38 0 22.62C136.2 382.4 132.1 384 128 384s-8.188-1.562-11.31-4.688l-112-112c-6.25-6.25-6.25-16.38 0-22.62l112-112c6.25-6.25 16.38-6.25 22.62 0s6.25 16.38 0 22.62L54.63 240h402.8l-84.69-84.69c-6.25-6.25-6.25-16.38 0-22.62s16.38-6.25 22.62 0l112 112C513.6 250.9 513.6 261.1 507.3 267.3z"/></svg>
